X:258
T:Devin Shepherd's
C:Devin Shepherd
S:Shena Tschofen
R:jig
M:6/8
L:1/8
K:G
G,B,D GDB, | CB,A, B,DG | AFD {E}FGA | cBc AFD |
GBd dBG | =FdB cGE | _EcA BGD | FBA G3 ::
E3 CEG | DB,G, G,B,D | DGB d2B | AFD DE=F |
E3 CEG | DB,G, G,B,D | DGc BGD | FBA G3
E3 CEG | DB,G, G,B,D | DGB d2B | AFD DBA |
GBd dBG | =FdB cGE | _EcA BGD | FBA G3 :|
